src/img/icons.svg

<svg xmlns="http://www.w3.org/2000/svg" aria-hidden="true" style="position:absolute;width:0;height:0;overflow:hidden">
  <defs>
    <symbol id="icon-barbell" viewBox="0 0 32 32">
      <circle fill="#242424" cx="16" cy="16" r="16"/>
      <path fill="#F4F4F4" d="M10.6 11.7143H9.4c-.3325 0-.6.2866-.6.6428v2.7858h-.6c-.11 0-.2.0964-.2.2142v1.2858c0 .1178.09.2142.2.2142h.6v2.7858c0 .3562.2675.6428.6.6428h1.2c.3325 0 .6-.2866.6-.6428v-7.2858c0-.3562-.2675-.6428-.6-.6428Zm13.2 3.4286h-.6v-2.7858c0-.3562-.2675-.6428-.6-.6428h-1.2c-.3325 0-.6.2866-.6.6428v7.2858c0 .3562.2675.6428.6.6428h1.2c.3325 0 .6-.2866.6-.6428v-2.7858h.6c.11 0 .2-.0964.2-.2142v-1.2858c0-.1178-.09-.2142-.2-.2142ZM19.4 10h-1.2c-.3325 0-.6.2866-.6.6429v4.5h-3.2v-4.5c0-.3563-.2675-.6429-.6-.6429h-1.2c-.3325 0-.6.2866-.6.6429v10.7142c0 .3563.2675.6429.6.6429h1.2c.3325 0 .6-.2866.6-.6429v-4.5h3.2v4.5c0 .3563.2675.6429.6.6429h1.2c.3325 0 .6-.2866.6-.6429V10.6429c0-.3563-.2675-.6429-.6-.6429Z"/>
    </symbol>
    <symbol id="icon-arrow" viewBox="0 0 33 32">
      <path d="M17.619 5.478v25.528h-2.716V5.478L2.139 18.242l-1.92-1.921L16.261.279l16.043 16.042-1.92 1.921L17.62 5.478z"/>
    </symbol>
    <symbol id="icon-double-angle" viewBox="0 0 41 32">
      <path d="M26.782 16.789A1.099 1.099 0 0 0 27.11 16a1.118 1.118 0 0 0-.328-.788l-5.1-5.089a1.099 1.099 0 0 1-.328-.789 1.114 1.114 0 0 1 1.111-1.112c.293 0 .575.116.783.323l5.1 5.1a3.334 3.334 0 0 1 0 4.711l-5.1 5.1a1.11 1.11 0 0 1-1.895-.79 1.118 1.118 0 0 1 .328-.788l5.1-5.089zM17.449 16.789a1.099 1.099 0 0 0 .328-.789 1.118 1.118 0 0 0-.328-.788l-5.1-5.089a1.099 1.099 0 0 1-.328-.789 1.114 1.114 0 0 1 1.111-1.112c.293 0 .575.116.783.323l5.1 5.1a3.334 3.334 0 0 1 0 4.711l-5.1 5.1a1.11 1.11 0 0 1-1.895-.79 1.118 1.118 0 0 1 .328-.788l5.1-5.089z"/>
    </symbol>
    <symbol id="icon-running-stick-figure" viewBox="0 0 32 32">
      <circle cx="16" cy="16" r="16" fill="currentcolor" fill-opacity=".2"/>
      <path fill="currentcolor" d="M24.73 11.907a.77.77 0 0 0-1.067-.093l-2.1 1.723-.965-2.337a.722.722 0 0 0-.146-.227 2.03 2.03 0 0 0-1.012-1.01 2.12 2.12 0 0 0-.628-.164c-.047-.023-.09-.055-.142-.071l-3.695-1.006a.775.775 0 0 0-.586.078.732.732 0 0 0-.46.42l-1.391 3.495c-.15.38.042.809.432.958a.765.765 0 0 0 .98-.423l1.175-2.951 1.683.457c-.041.065-.086.125-.119.195l-2.157 4.568c-.031.067-.048.135-.07.204l-2.621 4.295-4.387 1.434a1.081 1.081 0 0 0-.235 1.531c.369.486 1.07.59 1.566.23l4.489-1.51c.137-.098.237-.225.313-.363.056-.058.12-.105.164-.178l1.563-2.56 2.774 2.31-2.969 3.269a1.076 1.076 0 0 0 .096 1.543c.462.402 1.17.36 1.582-.093l3.704-4.078c.115-.125.184-.27.23-.422.028-.082.028-.168.035-.253 0-.044.016-.083.013-.123a1.063 1.063 0 0 0-.385-.796l-2.552-2.127a2.01 2.01 0 0 0 .453-.614l1.654-3.5.53 1.38a.69.69 0 0 0 .153.343.73.73 0 0 0 .29.198c.011.006.024.007.038.01a.753.753 0 0 0 .21.05.734.734 0 0 0 .26-.027l.003-.002c.023-.005.047 0 .07-.01a.749.749 0 0 0 .298-.213l3.013-2.498c.32-.263.185-.729-.085-1.042Zm-3.81-1.781c1.165 0 2.11-.923 2.11-2.063 0-1.14-.945-2.063-2.11-2.063-1.167 0-2.112.924-2.112 2.063 0 1.14.945 2.063 2.111 2.063Z"/>
    </symbol>
    <symbol id="icon-angle" viewBox="0 0 32 32">
      <path d="M17.867 16.947a1.334 1.334 0 0 0 0-1.894l-6.12-6.107a1.334 1.334 0 1 1 1.88-1.894l6.12 6.12a4.001 4.001 0 0 1 0 5.654l-6.12 6.12a1.337 1.337 0 0 1-2.172-.434 1.331 1.331 0 0 1 .292-1.46l6.12-6.107z"/>
    </symbol>
    <symbol id="icon-inverted_commas" viewBox="0 0 32 32">
      <path fill="currentcolor" d="M8.201 17.469c1.546-.613 2.785-.452 3.719.481s1.21 2.421.831 4.463c-.292 1.517-.933 2.683-1.925 3.5-.963.787-2.085 1.181-3.369 1.181-1.75 0-2.96-.671-3.631-2.013-.671-1.371-.802-3.208-.394-5.512.233-1.254.613-2.523 1.137-3.806s1.225-2.596 2.1-3.938 2.013-2.508 3.413-3.5 2.946-1.633 4.637-1.925l-.437 4.638c-1.429.292-2.698 1.035-3.806 2.231-1.108 1.167-1.867 2.567-2.275 4.2zm13.169 0c1.546-.613 2.785-.452 3.719.481s1.21 2.421.831 4.463c-.292 1.517-.933 2.683-1.925 3.5-.963.787-2.085 1.181-3.369 1.181-1.75 0-2.96-.671-3.631-2.013-.671-1.371-.802-3.208-.394-5.512.233-1.254.613-2.523 1.137-3.806s1.225-2.596 2.1-3.938 2.013-2.508 3.413-3.5 2.946-1.633 4.637-1.925l-.437 4.638c-1.429.292-2.698 1.035-3.806 2.231-1.108 1.167-1.867 2.567-2.275 4.2z"/>
    </symbol>
    <symbol id="icon-star" viewBox="0 0 32 32">
      <path d="M14.478 2.283c.479-1.474 2.564-1.474 3.043 0l2.43 7.478a1.6 1.6 0 0 0 1.522 1.106h7.863c1.55 0 2.194 1.983.94 2.894l-6.361 4.622a1.6 1.6 0 0 0-.581 1.789l2.43 7.478c.479 1.474-1.208 2.7-2.462 1.789l-6.361-4.622a1.602 1.602 0 0 0-1.881 0l-6.361 4.622c-1.254.911-2.941-.315-2.462-1.789l2.43-7.478a1.6 1.6 0 0 0-.581-1.789l-6.361-4.622c-1.254-.911-.61-2.894.94-2.894h7.863a1.6 1.6 0 0 0 1.522-1.106l2.43-7.478z"/>
    </symbol>
    <symbol id="icon-fluent_food-24" viewBox="0 0 32 32">
      <path d="M7.36 9.143H5.44c-.532 0-.96.459-.96 1.029v4.457h-.96c-.176 0-.32.154-.32.343v2.057c0 .188.144.343.32.343h.96v4.457c0 .57.428 1.028.96 1.028h1.92c.532 0 .96-.459.96-1.028V10.172c0-.57-.428-1.029-.96-1.029zm21.12 5.486h-.96v-4.457c0-.57-.428-1.029-.96-1.029h-1.92c-.532 0-.96.459-.96 1.029v11.657c0 .57.428 1.028.96 1.028h1.92c.532 0 .96-.459.96-1.028v-4.457h.96c.176 0 .32-.154.32-.343v-2.057c0-.189-.144-.343-.32-.343zM21.44 6.4h-1.92c-.532 0-.96.459-.96 1.029v7.2h-5.12v-7.2c0-.57-.428-1.029-.96-1.029h-1.92c-.532 0-.96.459-.96 1.029v17.143c0 .57.428 1.029.96 1.029h1.92c.532 0 .96-.459.96-1.029v-7.2h5.12v7.2c0 .57.428 1.029.96 1.029h1.92c.532 0 .96-.459.96-1.029V7.429c0-.57-.428-1.029-.96-1.029z"/>
    </symbol>
    <symbol id="icon-heart" viewBox="0 0 32 32">
      <path stroke-linecap="round" stroke-linejoin="round" stroke-width="2.4" d="M27.787 6.147a7.345 7.345 0 0 0-5.187-2.15 7.33 7.33 0 0 0-5.187 2.15L16 7.56l-1.413-1.413a7.333 7.333 0 0 0-10.374 0 7.333 7.333 0 0 0 0 10.374L16 28.308l11.787-11.787a7.345 7.345 0 0 0 2.15-5.187 7.33 7.33 0 0 0-2.15-5.187z"/>
    </symbol>
    <symbol id="icon-trash" viewBox="0 0 32 32">
      <path stroke-linecap="round" stroke-linejoin="round" stroke-width="2.4" d="M21.333 8V6.933c0-1.493 0-2.24-.291-2.811a2.666 2.666 0 0 0-1.165-1.165c-.57-.291-1.317-.291-2.811-.291h-2.133c-1.493 0-2.24 0-2.811.291-.502.256-.91.664-1.165 1.165-.291.57-.291 1.317-.291 2.811V8m2.667 7.333V22m5.334-6.667V22M4 8h24m-2.667 0v14.933c0 2.24 0 3.36-.436 4.216a3.996 3.996 0 0 1-1.748 1.748c-.856.436-1.976.436-4.216.436h-5.867c-2.24 0-3.36 0-4.216-.436a3.996 3.996 0 0 1-1.748-1.748c-.436-.856-.436-1.976-.436-4.216V8"/>
    </symbol>
    <symbol id="icon-close" viewBox="0 0 32 32">
      <path stroke-linecap="round" stroke-linejoin="round" stroke-width="2.667" d="M22.667 9.333 9.334 22.666M9.333 9.333l13.333 13.333"/>
    </symbol>
    <symbol id="icon-search" viewBox="0 0 32 32">
      <path stroke-linecap="round" stroke-linejoin="round" stroke-width="2.667" d="M14.667 25.333c5.891 0 10.667-4.776 10.667-10.667S20.558 3.999 14.667 3.999 4 8.775 4 14.666s4.776 10.667 10.667 10.667zM28 28l-5.8-5.8"/>
    </symbol>
  </defs>
</svg>

<svg xmlns="http://www.w3.org/2000/svg" aria-hidden="true" style="position:absolute;width:0;height:0;overflow:hidden">
  <defs>
    <symbol id="icon-barbell" viewBox="0 0 32 32">
      <circle fill="#242424" cx="16" cy="16" r="16"/>
      <path fill="#F4F4F4" d="M10.6 11.7143H9.4C9.0675 11.7143 8.8 12.0009 8.8 12.3571V15.1429H8.2C8.09 15.1429 8 15.2393 8 15.3571V16.6429C8 16.7607 8.09 16.8571 8.2 16.8571H8.8V19.6429C8.8 19.9991 9.0675 20.2857 9.4 20.2857H10.6C10.9325 20.2857 11.2 19.9991 11.2 19.6429V12.3571C11.2 12.0009 10.9325 11.7143 10.6 11.7143ZM23.8 15.1429H23.2V12.3571C23.2 12.0009 22.9325 11.7143 22.6 11.7143H21.4C21.0675 11.7143 20.8 12.0009 20.8 12.3571V19.6429C20.8 19.9991 21.0675 20.2857 21.4 20.2857H22.6C22.9325 20.2857 23.2 19.9991 23.2 19.6429V16.8571H23.8C23.91 16.8571 24 16.7607 24 16.6429V15.3571C24 15.2393 23.91 15.1429 23.8 15.1429ZM19.4 10H18.2C17.8675 10 17.6 10.2866 17.6 10.6429V15.1429H14.4V10.6429C14.4 10.2866 14.1325 10 13.8 10H12.6C12.2675 10 12 10.2866 12 10.6429V21.3571C12 21.7134 12.2675 22 12.6 22H13.8C14.1325 22 14.4 21.7134 14.4 21.3571V16.8571H17.6V21.3571C17.6 21.7134 17.8675 22 18.2 22H19.4C19.7325 22 20 21.7134 20 21.3571V10.6429C20 10.2866 19.7325 10 19.4 10Z"/>
    </symbol>
    <symbol id="icon-arrow" viewBox="0 0 33 32">
      <path d="M17.619 5.478v25.528h-2.716V5.478L2.139 18.242l-1.92-1.921L16.261.279l16.043 16.042-1.92 1.921L17.62 5.478z"/>
    </symbol>
    <symbol id="icon-double-angle" viewBox="0 0 41 32">
      <path d="M26.782 16.789A1.099 1.099 0 0 0 27.11 16a1.118 1.118 0 0 0-.328-.788l-5.1-5.089a1.099 1.099 0 0 1-.328-.789 1.114 1.114 0 0 1 1.111-1.112c.293 0 .575.116.783.323l5.1 5.1a3.334 3.334 0 0 1 0 4.711l-5.1 5.1a1.11 1.11 0 0 1-1.895-.79 1.118 1.118 0 0 1 .328-.788l5.1-5.089zM17.449 16.789a1.099 1.099 0 0 0 .328-.789 1.118 1.118 0 0 0-.328-.788l-5.1-5.089a1.099 1.099 0 0 1-.328-.789 1.114 1.114 0 0 1 1.111-1.112c.293 0 .575.116.783.323l5.1 5.1a3.334 3.334 0 0 1 0 4.711l-5.1 5.1a1.11 1.11 0 0 1-1.895-.79 1.118 1.118 0 0 1 .328-.788l5.1-5.089z"/>
    </symbol>
    <symbol id="icon-running-stick-figure" viewBox="0 0 32 32">
      <circle cx="16" cy="16" r="16" fill="currentcolor" fill-opacity=".2"/>
      <path fill="currentcolor" d="M24.73 11.907a.77.77 0 0 0-1.067-.093l-2.1 1.723-.965-2.337a.722.722 0 0 0-.146-.227 2.03 2.03 0 0 0-1.012-1.01 2.12 2.12 0 0 0-.628-.164c-.047-.023-.09-.055-.142-.071l-3.695-1.006a.775.775 0 0 0-.586.078.732.732 0 0 0-.46.42l-1.391 3.495c-.15.38.042.809.432.958a.765.765 0 0 0 .98-.423l1.175-2.951 1.683.457c-.041.065-.086.125-.119.195l-2.157 4.568c-.031.067-.048.135-.07.204l-2.621 4.295-4.387 1.434a1.081 1.081 0 0 0-.235 1.531c.369.486 1.07.59 1.566.23l4.489-1.51c.137-.098.237-.225.313-.363.056-.058.12-.105.164-.178l1.563-2.56 2.774 2.31-2.969 3.269a1.076 1.076 0 0 0 .096 1.543c.462.402 1.17.36 1.582-.093l3.704-4.078c.115-.125.184-.27.23-.422.028-.082.028-.168.035-.253 0-.044.016-.083.013-.123a1.063 1.063 0 0 0-.385-.796l-2.552-2.127a2.01 2.01 0 0 0 .453-.614l1.654-3.5.53 1.38a.69.69 0 0 0 .153.343.73.73 0 0 0 .29.198c.011.006.024.007.038.01a.753.753 0 0 0 .21.05.734.734 0 0 0 .26-.027l.003-.002c.023-.005.047 0 .07-.01a.749.749 0 0 0 .298-.213l3.013-2.498c.32-.263.185-.729-.085-1.042ZM20.92 10.126c1.165 0 2.11-.923 2.11-2.063 0-1.14-.945-2.063-2.11-2.063-1.167 0-2.112.924-2.112 2.063 0 1.14.945 2.063 2.111 2.063Z"/>
    </symbol>
    <symbol id="icon-angle" viewBox="0 0 32 32">
      <path d="M17.867 16.947a1.334 1.334 0 0 0 0-1.894l-6.12-6.107a1.334 1.334 0 1 1 1.88-1.894l6.12 6.12a4.001 4.001 0 0 1 0 5.654l-6.12 6.12a1.337 1.337 0 0 1-2.172-.434 1.331 1.331 0 0 1 .292-1.46l6.12-6.107z"/>
    </symbol>
    <symbol id="icon-inverted_commas" viewBox="0 0 32 32">
      <path fill="currentcolor" d="M8.201 17.469c1.546-.613 2.785-.452 3.719.481s1.21 2.421.831 4.463c-.292 1.517-.933 2.683-1.925 3.5-.963.787-2.085 1.181-3.369 1.181-1.75 0-2.96-.671-3.631-2.013-.671-1.371-.802-3.208-.394-5.512.233-1.254.613-2.523 1.137-3.806s1.225-2.596 2.1-3.938 2.013-2.508 3.413-3.5 2.946-1.633 4.637-1.925l-.437 4.638c-1.429.292-2.698 1.035-3.806 2.231-1.108 1.167-1.867 2.567-2.275 4.2zm13.169 0c1.546-.613 2.785-.452 3.719.481s1.21 2.421.831 4.463c-.292 1.517-.933 2.683-1.925 3.5-.963.787-2.085 1.181-3.369 1.181-1.75 0-2.96-.671-3.631-2.013-.671-1.371-.802-3.208-.394-5.512.233-1.254.613-2.523 1.137-3.806s1.225-2.596 2.1-3.938 2.013-2.508 3.413-3.5 2.946-1.633 4.637-1.925l-.437 4.638c-1.429.292-2.698 1.035-3.806 2.231-1.108 1.167-1.867 2.567-2.275 4.2z"/>
    </symbol>
    <symbol id="icon-star" viewBox="0 0 32 32">
      <path d="M14.478 2.283c.479-1.474 2.564-1.474 3.043 0l2.43 7.478a1.6 1.6 0 0 0 1.522 1.106h7.863c1.55 0 2.194 1.983.94 2.894l-6.361 4.622a1.6 1.6 0 0 0-.581 1.789l2.43 7.478c.479 1.474-1.208 2.7-2.462 1.789l-6.361-4.622a1.602 1.602 0 0 0-1.881 0l-6.361 4.622c-1.254.911-2.941-.315-2.462-1.789l2.43-7.478a1.6 1.6 0 0 0-.581-1.789l-6.361-4.622c-1.254-.911-.61-2.894.94-2.894h7.863a1.6 1.6 0 0 0 1.522-1.106l2.43-7.478z"/>
    </symbol>
    <symbol id="icon-fluent_food-24" viewBox="0 0 32 32">
      <path d="M7.36 9.143H5.44c-.532 0-.96.459-.96 1.029v4.457h-.96c-.176 0-.32.154-.32.343v2.057c0 .188.144.343.32.343h.96v4.457c0 .57.428 1.028.96 1.028h1.92c.532 0 .96-.459.96-1.028V10.172c0-.57-.428-1.029-.96-1.029zm21.12 5.486h-.96v-4.457c0-.57-.428-1.029-.96-1.029h-1.92c-.532 0-.96.459-.96 1.029v11.657c0 .57.428 1.028.96 1.028h1.92c.532 0 .96-.459.96-1.028v-4.457h.96c.176 0 .32-.154.32-.343v-2.057c0-.189-.144-.343-.32-.343zM21.44 6.4h-1.92c-.532 0-.96.459-.96 1.029v7.2h-5.12v-7.2c0-.57-.428-1.029-.96-1.029h-1.92c-.532 0-.96.459-.96 1.029v17.143c0 .57.428 1.029.96 1.029h1.92c.532 0 .96-.459.96-1.029v-7.2h5.12v7.2c0 .57.428 1.029.96 1.029h1.92c.532 0 .96-.459.96-1.029V7.429c0-.57-.428-1.029-.96-1.029z"/>
    </symbol>
    <symbol id="icon-heart" viewBox="0 0 32 32">
      <path stroke-linecap="round" stroke-linejoin="round" stroke-width="2.4" d="M27.787 6.147a7.345 7.345 0 0 0-5.187-2.15 7.33 7.33 0 0 0-5.187 2.15L16 7.56l-1.413-1.413a7.333 7.333 0 0 0-10.374 0 7.333 7.333 0 0 0 0 10.374L16 28.308l11.787-11.787a7.345 7.345 0 0 0 2.15-5.187 7.33 7.33 0 0 0-2.15-5.187z"/>
    </symbol>
    <symbol id="icon-trash" viewBox="0 0 32 32">
      <path stroke-linecap="round" stroke-linejoin="round" stroke-width="2.4" d="M21.333 8V6.933c0-1.493 0-2.24-.291-2.811a2.666 2.666 0 0 0-1.165-1.165c-.57-.291-1.317-.291-2.811-.291h-2.133c-1.493 0-2.24 0-2.811.291-.502.256-.91.664-1.165 1.165-.291.57-.291 1.317-.291 2.811V8m2.667 7.333V22m5.334-6.667V22M4 8h24m-2.667 0v14.933c0 2.24 0 3.36-.436 4.216a3.996 3.996 0 0 1-1.748 1.748c-.856.436-1.976.436-4.216.436h-5.867c-2.24 0-3.36 0-4.216-.436a3.996 3.996 0 0 1-1.748-1.748c-.436-.856-.436-1.976-.436-4.216V8"/>
    </symbol>
    <symbol id="icon-close" viewBox="0 0 32 32">
      <path stroke-linecap="round" stroke-linejoin="round" stroke-width="2.667" d="M22.667 9.333 9.334 22.666M9.333 9.333l13.333 13.333"/>
    </symbol>
    <symbol id="icon-search" viewBox="0 0 32 32">
      <path stroke-linecap="round" stroke-linejoin="round" stroke-width="2.667" d="M14.667 25.333c5.891 0 10.667-4.776 10.667-10.667S20.558 3.999 14.667 3.999 4 8.775 4 14.666s4.776 10.667 10.667 10.667zM28 28l-5.8-5.8"/>
    </symbol>
  </defs>
</svg>
